icon_installer/data/icons/scalable/actions/show-speedometer-symbolic.svg

<?xml version="1.0" encoding="UTF-8"?>
<svg height="16px" viewBox="0 0 16 16" width="16px" xmlns="http://www.w3.org/2000/svg">
    <path d="m 8 1.007812 c -2.050781 0 -4.097656 0.777344 -5.65625 2.335938 c -3.117188 3.117188 -3.117188 8.195312 0 11.3125 c 0.390625 0.390625 1.023438 0.390625 1.414062 0 c 0.25 -0.253906 0.351563 -0.621094 0.257813 -0.964844 l 0.804687 -0.804687 l -0.707031 -0.707031 l -0.691406 0.691406 c -0.835937 -0.984375 -1.304687 -2.164063 -1.402344 -3.371094 h 0.980469 v -1 h -0.980469 c 0.09375 -1.148438 0.523438 -2.273438 1.28125 -3.226562 c 0.039063 0.097656 0.097657 0.183593 0.167969 0.257812 l 2.6875 2.6875 c -0.101562 0.246094 -0.15625 0.511719 -0.15625 0.78125 c 0 1.105469 0.894531 2 2 2 s 2 -0.894531 2 -2 s -0.894531 -2 -2 -2 c -0.265625 0 -0.53125 0.054688 -0.777344 0.160156 l -2.691406 -2.691406 c -0.074219 -0.074219 -0.164062 -0.128906 -0.261719 -0.167969 c 0.957031 -0.761719 2.082031 -1.1875 3.230469 -1.28125 v 0.980469 h 1 v -0.980469 c 1.207031 0.097657 2.386719 0.566407 3.371094 1.402344 l -0.691406 0.691406 l 0.707031 0.707031 l 0.691406 -0.691406 c 0.835937 0.984375 1.304687 2.164063 1.402344 3.371094 h -0.980469 v 1 h 0.980469 c -0.097657 1.207031 -0.566407 2.386719 -1.402344 3.371094 l -0.691406 -0.691406 l -0.707031 0.707031 l 0.804687 0.804687 c -0.09375 0.34375 0.007813 0.710938 0.257813 0.964844 c 0.390624 0.390625 1.023437 0.390625 1.414062 0 c 3.117188 -3.117188 3.117188 -8.195312 0 -11.3125 c -1.558594 -1.558594 -3.605469 -2.335938 -5.65625 -2.335938 z m 0 0" fill="#222222"/>
</svg>

<svg xmlns="http://www.w3.org/2000/svg" width="16" height="16"><path fill="#222" d="M8 1.008c-2.05 0-4.098.777-5.656 2.336-3.117 3.117-3.117 8.195 0 11.312a1 1 0 0 0 1.672-.965l.804-.804-.707-.707-.691.691A5.935 5.935 0 0 1 2.02 9.5H3v-1h-.98A5.957 5.957 0 0 1 3.3 5.273c.04.098.098.184.169.258L6.156 8.22A2.05 2.05 0 0 0 6 9a2 2 0 1 0 1.223-1.84L4.53 4.47a.771.771 0 0 0-.26-.17A5.95 5.95 0 0 1 7.5 3.02V4h1v-.98a5.935 5.935 0 0 1 3.371 1.402l-.691.691.707.707.691-.691A5.935 5.935 0 0 1 13.98 8.5H13v1h.98a5.935 5.935 0 0 1-1.402 3.371l-.691-.691-.707.707.804.804a1 1 0 0 0 1.672.965c3.117-3.117 3.117-8.195 0-11.312A7.969 7.969 0 0 0 8 1.008zm0 0"/></svg>
